brandFactory_export/2.Regular/Añadir ruta_Ubicacion_2Regular.svg

<?xml version="1.0" encoding="UTF-8"?>
<svg width="24px" height="24px" viewBox="0 0 24 24" version="1.1" xmlns="http://www.w3.org/2000/svg" xmlns:xlink="http://www.w3.org/1999/xlink">
    <title>2.Regular/Añadir ruta_Ubicacion_2Regular</title>
    <g id="Symbols" stroke="none" stroke-width="1" fill="none" fill-rule="evenodd">
        <g id="2.Regular/Añadir-ruta_Ubicacion_2Regular" fill="#5CB615" fill-rule="nonzero">
            <path d="M14.9815126,21.8319328 C16.9781513,19.5764706 22.1445378,12.7294118 22.1547432,8.51428571 C22.1647059,6.25882353 21.5462185,4.50420168 20.3226891,3.2907563 C19.102521,2.07394958 17.3210084,1.45882353 15.0319328,1.44537815 C12.7697479,1.44537815 10.9613445,2.05378151 9.72773109,3.2605042 C8.49411765,4.46386555 7.86554622,6.21848739 7.86554622,8.47731092 C7.85546218,8.80672269 7.90588235,9.18319328 7.97310924,9.56638655 C9.86218487,9.95294118 12.7193277,11.2638655 12.7193277,15.687395 C12.7193277,16.7394958 12.5512605,17.6168067 12.2789916,18.3394958 C13.1193277,19.5529412 14.0201681,20.7159664 14.9815126,21.8319328 L14.9815126,21.8319328 Z M6.62521008,20.4907563 C8.34621849,20.4638655 11.2537815,19.7983193 11.2537815,15.6907563 C11.2537815,11.5831933 8.32941176,10.897479 6.58487395,10.8504202 L6.03697479,10.8504202 C4.32268908,10.8705882 1.46554622,11.5092437 1.46554622,15.6537815 C1.46554622,19.8184874 4.36302521,20.4739496 6.08403361,20.5042017 L6.26890756,20.5042017 C6.38991597,20.5008403 6.51764706,20.5008403 6.62521008,20.4907563 L6.62521008,20.4907563 Z M21.3714286,2.26554622 C22.8504202,3.74117647 23.6336134,5.89915966 23.6236256,8.52436975 C23.6134454,14.0571429 16.507563,22.4201681 15.502521,23.4117647 C15.3647059,23.5495798 15.1764706,23.6236346 14.9848739,23.6236346 C14.789916,23.6268908 14.6016807,23.5495798 14.4672269,23.4117647 C13.9596639,22.9210084 12.8235294,21.6 11.502521,19.7680672 C9.97647059,21.707563 7.4789916,21.9294118 6.65882353,21.9361345 C6.54117647,21.9462185 6.40336134,21.9462185 6.27563025,21.9462185 L6.07058824,21.9462185 C4.79663866,21.9260504 0,21.4722689 0,15.6504202 C0,9.84537815 4.74621849,9.41176471 6.01680672,9.40168067 L6.45714286,9.40168067 C6.41344538,9.09243697 6.39327731,8.77983193 6.39663866,8.46722689 C6.39663866,5.85546218 7.18991597,3.69411765 8.68571429,2.22857143 C10.1848739,0.76302521 12.3932773,0.0100840336 15.0386555,0 C17.6941176,0.0100840336 19.8857143,0.789915966 21.3714286,2.26554622 Z M15.0117647,6.26554622 C13.8285714,6.26554622 13.2537815,6.83361345 13.2537815,7.99663866 C13.2537815,9.15966387 13.8285714,9.72773109 15.0117647,9.72773109 C16.194958,9.72773109 16.7697479,9.15966387 16.7697479,7.99663866 C16.7697479,6.83361345 16.1915966,6.26554622 15.0117647,6.26554622 L15.0117647,6.26554622 Z M15.0117647,11.1798319 C13.0218487,11.1798319 11.7848739,9.95966387 11.7848739,8 C11.7848739,6.04033613 13.0218487,4.82016807 15.0117647,4.82016807 C17.0016807,4.82016807 18.2386555,6.04033613 18.2386555,8 C18.2352941,9.95966387 17.0016807,11.1798319 15.0117647,11.1798319 L15.0117647,11.1798319 Z M9.52941176,14.9310924 C9.93277311,14.9277311 10.2588235,15.2504202 10.2621849,15.6537815 C10.2588235,16.0571429 9.93277311,16.3798319 9.52941176,16.3764706 L7.09243697,16.3764706 L7.09243697,18.789916 C7.08907563,19.1932773 6.76302521,19.5159664 6.35966387,19.5126311 C5.95630252,19.5159664 5.6302521,19.1932773 5.62689076,18.789916 L5.62689076,16.3798319 L3.18991597,16.3798319 C2.78655462,16.3831933 2.4605042,16.0605042 2.45714286,15.6571429 C2.4605042,15.2537815 2.78991597,14.9310924 3.18991597,14.9344538 L5.62352941,14.9344538 L5.62352941,12.5613445 C5.62689076,12.1579832 5.95294118,11.8352941 6.35630252,11.8386294 C6.75966387,11.8352941 7.08571429,12.1579832 7.08907563,12.5613445 L7.08907563,14.9344538 L9.52941176,14.9344538 L9.52941176,14.9310924 L9.52941176,14.9310924 Z" id="Añadir-ruta_Ubicacion_2Regular"></path>
        </g>
    </g>
</svg>

<svg width="24" height="24" viewBox="0 0 24 24" xmlns="http://www.w3.org/2000/svg"><path d="M14.982 21.832c1.996-2.256 7.163-9.103 7.173-13.318.01-2.255-.609-4.01-1.832-5.223-1.22-1.217-3.002-1.832-5.291-1.846-2.262 0-4.07.609-5.304 1.816-1.234 1.203-1.862 2.957-1.862 5.216-.01.33.04.706.107 1.09 1.89.386 4.746 1.697 4.746 6.12 0 1.052-.168 1.93-.44 2.652a41.87 41.87 0 002.703 3.493zM6.625 20.49c1.721-.027 4.629-.693 4.629-4.8 0-4.108-2.925-4.794-4.67-4.84h-.547c-1.714.02-4.571.658-4.571 4.803 0 4.164 2.897 4.82 4.618 4.85h.185c.12-.003.249-.003.356-.013zM21.371 2.266c1.48 1.475 2.263 3.633 2.253 6.258-.01 5.533-7.116 13.896-8.121 14.888a.733.733 0 01-.518.212.708.708 0 01-.518-.212c-.507-.491-1.643-1.812-2.964-3.644-1.527 1.94-4.024 2.161-4.844 2.168-.118.01-.256.01-.383.01H6.07C4.797 21.926 0 21.472 0 15.65c0-5.805 4.746-6.238 6.017-6.248h.44a6.204 6.204 0 01-.06-.935c0-2.612.793-4.773 2.289-6.238C10.185.763 12.393.01 15.039 0c2.655.01 4.847.79 6.332 2.266zm-6.36 4c-1.182 0-1.757.568-1.757 1.73 0 1.164.575 1.732 1.758 1.732s1.758-.568 1.758-1.731c0-1.163-.578-1.731-1.758-1.731zm0 4.914c-1.99 0-3.226-1.22-3.226-3.18 0-1.96 1.237-3.18 3.227-3.18 1.99 0 3.227 1.22 3.227 3.18-.004 1.96-1.237 3.18-3.227 3.18zM9.53 14.93c.404-.003.73.32.733.723a.726.726 0 01-.733.722H7.092v2.414a.726.726 0 01-.732.723.726.726 0 01-.733-.723v-2.41H3.19a.726.726 0 01-.733-.723.728.728 0 01.733-.723h2.434v-2.373a.726.726 0 01.732-.722c.404-.004.73.319.733.722v2.373h2.44v-.003z" fill="#5CB615" fill-rule="nonzero"/></svg>
